X:1
T:Title
%%score [ ( 1 2 ) ( 3 4 ) ]
L:1/8
Q:1/4=240
M:4/4
K:F
V:1 treble nm="Midi_74"
V:2 treble 
V:3 bass nm="Midi_74"
V:4 bass 
V:1
 A8 | B4 d4 | G8 || c8 | F2 G2 A2 B2 | A4 G4 |"^Charles King\n(1687-1748)" F8 |] %7
V:2
 F8 | F4 F4 | E8 || F8 | D2 E2 F4 | F4 E4 | F8 |] %7
V:3
 C8 | B,4 B,4 | G,8 || F,8 | B,4 C2 D2 | C6 B,2 | A,8 |] %7
V:4
 F,8 | D,4 B,,4 | C,8 || A,,8 | B,,4 F,,4 | C,4 C,4 | F,8 |] %7

